X:1
T: McGregor's Freedom March
C:I. Munro
R:Reel
Q: 232
K:F
M:4/4
L:1/8
|:CD|F2 FG A3c|BA G2 F2 AB|c2 cd _e3d|((3ded) c3-c2 cc|
f2 c2 d2 cB|c3A F2 FG|A2 Ac BA G2|A1/2G1/2F F2-F2 ED|
CC1/2C1/2 EG BA G2|F1/2FF1/2 Ac f4|f2 f3/2f1/2 fd gf|e3d cc de|
f2 c2 d2 fd|c3A F2 FG|A2 Ac BA G2|A1/2G1/2F F2-F2:|
